img/logos/meetup.svg

<svg height="17" viewBox="0 0 26 17" width="26" xmlns="http://www.w3.org/2000/svg"><g fill="#fff" fill-rule="evenodd"><path d="m24.0773684 0h-22.15473682c-1.06052632 0-1.92263158.8568-1.92263158 1.9108v13.1784c0 1.054.86210526 1.9108 1.92263158 1.9108h22.15473682c1.0605263 0 1.9226316-.8568 1.9226316-1.9108v-13.1784c0-1.054-.8621053-1.9108-1.9226316-1.9108zm1.6147369 14.722h-25.37052635v-10.1592h25.37052635z"/><path d="m23.5026316 8.6224c-.0889474-.0068.0622631-.1156-.0472105-.2176.0410526.0408 0-.1224-.0417369-.2312-.0889474-.2516-.3003684-.4012-.5952631-.5644-.2524737-.1428-.4378948-.0476-.6698422-.1972.0068422.0068-.0691052-.0884-.185421-.0612-.6568421.1224-1.0673684.714-1.3957895 1.2784-.0273684.0476 0 .1292-.0273684.1632 0 0-.0957895.1836-.1436842.25772 0 0-.0068421.00748-.0068421.01428-.1231579.3196-.074579.7344-.2326316 1.0404-.13.238.1094737.5984-.0547368.8228-.0342106.0544-.2189474.0068-.2873685.0544-.1436842.1156-.0342105.44132.0478948.51.068421.04692.1635263.0068.2052631.08092.0684211.12308-.0417368.306 0 .476.0547369.23868.061579.4556.1231579.7344.0821053.35428.061579.7004.1573685.9928.1505263.46308.533.0544.7389473.1972.0136842 0 .1984211.1156.2873684.034.0472106-.0408-.0342105-.32572-.0547368-.3944-.0273684-.068-.1778947-.4556-.1368421-.4352-.0957895-.0408-.0136842-.6256-.0478947-.78132-.0273685-.102-.1019474-.68748.0075263-.74868.0547368-.034.1566842.0272.2052631.0204.2326316-.0544.5131579-.23868.6636842-.3468.3078948-.23188.7868421-.6392.9305264-.816.26-.3128.6424736-.8976.5405263-1.5164.013.08908.0540526-.36652.0198421-.36652zm-1.9021053 1.8088c-.0478947.04148-.377.3128-.4173684.272-.0342105-.034.0410526-.40868.0547368-.4284.0752632-.136.1231579-.5644.1642106-.57188.0615789-.0136.0342105-.2924.0547368-.34.1984211-.3536.4105263-.9044.7040526-1.14852.2127895-.17.1512106.17.191579.3128.2333158.7956-.3277369 1.5504-.7519474 1.904z"/><path d="m19.7257895 10.5604c-.0342106.0408-.2326316.2108-.2394737.2108-.1710526.2176-.191579.38148-.3626316.6392-.0273684.04692-.0889474.04692-.1710526.07412-.1094737.04148-.1984211.4284-.4112105.3876-.321579-.0612-1.0673685.2516-1.2719474-.2652-.0964737-.2312-.1163158-.4216-.191579-.72148-.1163158-.4352-.2052631-1.06692-.2257894-1.7816 0-.0136-.0136842-.034-.0273685-.034v.01428c-.2531579-.6868.8278948-.3264 1.0057895-.1904.3421053.2584.0478948 1.0268.191579 1.5708.0478947.1632.0068421.476.0417368.6188.0273684.12308.0068421.306.1984211.12308.1293157-.12308.2668421-.34748.4036842-.57188.1505263-.2516.2531579-.7752.1908947-1.00572-.0342105-.136 0-.35428-.0068421-.374-.3421053-.89148 1.0536842-.442 1.1631579-.0272.0957895.3468-.1505263 1.1356-.2873684 1.3328z"/><path d="m15.6342105 10.0436c-.0615789.04148-.0136842.1632.0075263.1972.1019474.32028-.1785789.9044.0273685 1.122.1163158.1224-.0547369.7276-.1436842.748-.2333158.068-.6027895.0816-.6096316-.0068-.0205263-.2924-.0342106-.6732-.0957895-.95132-.0615789-.26588.0478947-.5032-.0143684-.7616-.0547369-.2244-.0198421-.3264-.2942105-.272-.1710527.034-.5747369-.0272-.6568422-.0748-.1642105-.0952-.0821052-.52972.0752632-.58412.321579-.102.2668421.034.3557895 0 .1094737-.04148.3215789.0952.4112105.034.0266842-.0204.0136842-.2992-.0143684-.3604.0205263.0544 0-.1428-.0273684-.21692-.0342106-.0884-.0889474-.6052-.0889474-.646-.061579-.0816.0068421-.2244-.0342105-.2176.0198421-.0068-.0752632-.4896-.0752632-.4896-.0547368-.238 0-.3332-.0478947-.5576-.0608948-.25364.0964737-.45084.0348947-.70244-.0478947-.2108-.0273684-.7888.2121053-.85.2736842-.0612.6157894.1156.7663158.2108.3626315.2176.0889473.7004.1778947 1.1084.0273684.1224-.0136842.3808-.0068421.4012.1710526.442-.0068421 1.0744.1026316 1.462.0472105.1496-.1573684.6596-.0964737.748.1505263.21148.1368421-.17.1368421-.204 0-.1224.2189474-.1224.3078947-.068.0472106.034.1231579.034.191579.07412.1436842.0884.2326316.3604.3277368.43588.0547369.034.1778948.034.2052632.07412.0964737.17-.2052632.2312-.2394737.2448-.1423158.04828-.7854737.01428-.8949474.10268z"/><path d="m14.0057895 11.3152c-.1231579-.17-.5268421-.18972-.6021053-.07412-.198421.29852-.4242105.18972-.6226316.27132-.4789473.1904-.8826315-.544-.9647368-.9112-.0957895-.4556.4242105-.2924.6226316-.1904 0-.0068.1847368.0272.1642105.0272.1231579.00748.3763158-.068.4926316-.1156h.0068421c.0205263 0 .198421-.0612.2052631-.07412.0273685-.0544-.0478947-.37468-.0273684-.37468-.0821052-.0136.1436842-1.1016.1231579-1.2036-.0957895-.3944.1642105-.8772.0821053-1.1288-.0410527-.136-.4926316-.2992-.5610527-.34-.13-.0748-.6431579-.1496-.7115789-.0884-.2531579.2584-.65.6936-.8826316 1.1152-.0136842.0204-.0889474.2176-.1163158.2244-.1163158.0476-.198421.8976-.3147368 1.1016-.1778948.3128-.061579 1.2784.0547368 1.42868.2257895.27812.3147369.49572.711579.75412.2463158.1564.6910526.1904.7868421.1632.1915789-.0612.2463158.1428.4036842.102.1436842-.04148.4447368-.0748.6431579-.1428.1436842-.0476.7321052-.2312.5063158-.544zm-1.9363158-1.9856c.0615789-.10132.1163158-.4828.2531579-.66572.0273684-.0476.1368421-.204.1368421-.2108.0068421 0 .0821052.8092.0615789.76772.0273685.0476-.0068421.49028-.0615789.5372 0 0-.4036842-.0068-.4447369-.04692-.0205263-.02788.0205264-.32708.0547369-.38148z"/><path d="m11.0978947 11.5872c-.1505263-.1088-.6089473-.34-.8278947-.2108-.44473684.27812-.97157895.1768-1.16315789-.3604-.08894737-.2448-.00684211-.4284-.06842106-.714-.09578947-.4488.49263158-.04148.84842106-.1156.21894739-.04148.54736839.0408.63631579-.15028.0068421-.0068.0068421-.0136.0136842-.0136 0 0 0-.01428-.0068421-.01428.0068421.00748.0068421.00748.0136842.00748.0478947 0 .0410526-.612.0684211-.7004-.061579.0204.0547368-.1292.0205263-.2244-.1436842-.4556-.0136842-1.0336-.1984211-1.4416-.0957894-.2176-1.21789471-.4216-1.36157892-.2244-.17789474.2448-.26.2448-.44473684.4012-.05473685.0408-.30789474.2652-.37631579.3672-.20526316.3128-.45157895 1.0948-.32157895 1.6592.08210526.374-.10263158.7888-.03421053 1.0744.01368421.0408.09578948.0952.09578948.1428.0068421.0136.15052631.4216.27368421.49572.06842105.04148.12315789 0 .15736842.0476.03421053.034.45157895.2924.58842105.3672.3831579.2176 1.49842107-.0204 1.53947367-.0612.0273684-.01904.7526316-.18224.5473684-.33184zm-1.73105259-3.094c.09578947-.068.10947368.4828.1368421.6052.01368421.0612-.03421053.35428-.04789474.3672-.02736842.01428-.36263158-.0204-.38315789-.0476-.10947369-.1292.24631579-.8908.29421053-.9248z"/><path d="m7.99842105 11.9136c-.01368421 0-.17105263.04148-.17105263.04148-.16421053.0612-.45157895.068-.52.136-.14368421.1496-.35578947-.15028-.36947368-.1904-.04789474-.1632-.06842106-.2788-.11631579-.408-.15052632-.38828-.2531579-.74868-.41052632-1.14308-.06842105-.16252-.06842105-.51-.1368421-.544.06157894.034-.02052632-.1156-.02736842-.1224-.10263158-.0612-.05473685-.476-.13-.5576-.05473685-.0612-.04105264.0748-.05473685.0748.06842106.21692-.13.66572-.05473684.7208.01368421.01428-.0068421.5984 0 .5984.04105263.15028-.04789474.8772-.1368421 1.03428-.1231579.2108-1.09473685.29852-1.2931579.0544-.15736842-.1904-.39-.5848-.50631579-.7684-.04789474-.06868-.04789474-.17-.08894737-.2244-.21210526-.26588-.14368421.0544-.1368421.2312.01368421.3468.19842105.7344-.17105263.8636-.31473685.1156-.82789474.21148-.94421053-.07412-.13-.3264-.07526316-1.0676-.14368421-1.2104-.08894737-.1632-.06157895-.986-.06157895-1.0676.00684211-.10132.02736842-.46852.02052632-.5032-.03421053-.21896.02736842-.45696.0068421-.53856-.10947368-.4352.43789474-.4896.62263158-.5304.02736842-.0068.55421053.0136.60210527.0748.07526315.0884.03421052.102.14368421.2312.20526315.2312.34210526.7412.49263157.9316.1231579.15028.28052632.476.35578948.646.13.2856.04789474-.578.16421052-.8024.13-.2448.09578948-.5848.21210527-.782.15052631-.2516.23947368-.7684.41736842-1.0404.09578947-.1564.62947368-.0408.73210526-.0204.30105263.0612.26684211-.0408.47210527.17.14368421.1496.36947368 1.1356.47894736 1.53.04789474.1632.06157895.7548.19157895 1.1016.06842105.1768.30105263.8704.34210526 1.2988v.0068c.06157895.0748.28736843.7208.21894737.782z"/></g></svg>

<?xml version="1.0" encoding="UTF-8" standalone="no"?>
<svg width="26px" height="17px" viewBox="0 0 26 17" version="1.1" xmlns="http://www.w3.org/2000/svg" xmlns:xlink="http://www.w3.org/1999/xlink">
    <!-- Generator: Sketch 39.1 (31720) - http://www.bohemiancoding.com/sketch -->
    <title>meetup</title>
    <desc>Created with Sketch.</desc>
    <defs></defs>
    <g id="Page-1" stroke="none" stroke-width="1" fill="none" fill-rule="evenodd">
        <g id="meetup" fill="#FFFFFF">
            <g id="Group">
                <path d="M24.0773684,0 L1.92263158,0 C0.862105263,0 0,0.8568 0,1.9108 L0,15.0892 C0,16.1432 0.862105263,17 1.92263158,17 L24.0773684,17 C25.1378947,17 26,16.1432 26,15.0892 L26,1.9108 C26,0.8568 25.1378947,0 24.0773684,0 L24.0773684,0 Z M25.6921053,14.722 L0.321578947,14.722 L0.321578947,4.5628 L25.6921053,4.5628 L25.6921053,14.722 L25.6921053,14.722 Z" id="Shape"></path>
                <path d="M23.5026316,8.6224 C23.4136842,8.6156 23.5648947,8.5068 23.4554211,8.4048 C23.4964737,8.4456 23.4554211,8.2824 23.4136842,8.1736 C23.3247368,7.922 23.1133158,7.7724 22.8184211,7.6092 C22.5659474,7.4664 22.3805263,7.5616 22.1485789,7.412 C22.1554211,7.4188 22.0794737,7.3236 21.9631579,7.3508 C21.3063158,7.4732 20.8957895,8.0648 20.5673684,8.6292 C20.54,8.6768 20.5673684,8.7584 20.54,8.7924 C20.54,8.7924 20.4442105,8.976 20.3963158,9.05012 C20.3963158,9.05012 20.3894737,9.0576 20.3894737,9.0644 C20.2663158,9.384 20.3148947,9.7988 20.1568421,10.1048 C20.0268421,10.3428 20.2663158,10.7032 20.1021053,10.9276 C20.0678947,10.982 19.8831579,10.9344 19.8147368,10.982 C19.6710526,11.0976 19.7805263,11.42332 19.8626316,11.492 C19.9310526,11.53892 20.0261579,11.4988 20.0678947,11.57292 C20.1363158,11.696 20.0261579,11.87892 20.0678947,12.04892 C20.1226316,12.2876 20.1294737,12.50452 20.1910526,12.78332 C20.2731579,13.1376 20.2526316,13.48372 20.3484211,13.77612 C20.4989474,14.2392 20.8814211,13.83052 21.0873684,13.97332 C21.1010526,13.97332 21.2857895,14.08892 21.3747368,14.00732 C21.4219474,13.96652 21.3405263,13.6816 21.32,13.61292 C21.2926316,13.54492 21.1421053,13.15732 21.1831579,13.17772 C21.0873684,13.13692 21.1694737,12.55212 21.1352632,12.3964 C21.1078947,12.2944 21.0333158,11.70892 21.1427895,11.64772 C21.1975263,11.61372 21.2994737,11.67492 21.3480526,11.66812 C21.5806842,11.61372 21.8612105,11.42944 22.0117368,11.32132 C22.3196316,11.08944 22.7985789,10.68212 22.9422632,10.50532 C23.2022632,10.19252 23.5847368,9.60772 23.4827895,8.98892 C23.4957895,9.078 23.5368421,8.6224 23.5026316,8.6224 L23.5026316,8.6224 Z M21.6005263,10.4312 C21.5526316,10.47268 21.2235263,10.744 21.1831579,10.7032 C21.1489474,10.6692 21.2242105,10.29452 21.2378947,10.2748 C21.3131579,10.1388 21.3610526,9.7104 21.4021053,9.70292 C21.4636842,9.68932 21.4363158,9.41052 21.4568421,9.36292 C21.6552632,9.00932 21.8673684,8.45852 22.1608947,8.2144 C22.3736842,8.0444 22.3121053,8.3844 22.3524737,8.5272 C22.5857895,9.3228 22.0247368,10.0776 21.6005263,10.4312 L21.6005263,10.4312 Z" id="Shape"></path>
                <path d="M19.7257895,10.5604 C19.6915789,10.6012 19.4931579,10.7712 19.4863158,10.7712 C19.3152632,10.9888 19.2947368,11.15268 19.1236842,11.4104 C19.0963158,11.45732 19.0347368,11.45732 18.9526316,11.48452 C18.8431579,11.526 18.7542105,11.91292 18.5414211,11.87212 C18.2198421,11.81092 17.4740526,12.12372 17.2694737,11.60692 C17.173,11.37572 17.1531579,11.18532 17.0778947,10.88544 C16.9615789,10.45024 16.8726316,9.81852 16.8521053,9.10384 C16.8521053,9.09024 16.8384211,9.06984 16.8247368,9.06984 L16.8247368,9.08412 C16.5715789,8.39732 17.6526316,8.75772 17.8305263,8.89372 C18.1726316,9.15212 17.8784211,9.92052 18.0221053,10.46452 C18.07,10.62772 18.0289474,10.94052 18.0638421,11.08332 C18.0912105,11.2064 18.0706842,11.38932 18.2622632,11.2064 C18.3915789,11.08332 18.5291053,10.85892 18.6659474,10.63452 C18.8164737,10.38292 18.9191053,9.85932 18.8568421,9.6288 C18.8226316,9.4928 18.8568421,9.27452 18.85,9.2548 C18.5078947,8.36332 19.9036842,8.8128 20.0131579,9.2276 C20.1089474,9.5744 19.8626316,10.3632 19.7257895,10.5604 L19.7257895,10.5604 Z" id="Shape"></path>
                <path d="M15.6342105,10.0436 C15.5726316,10.08508 15.6205263,10.2068 15.6417368,10.2408 C15.7436842,10.56108 15.4631579,11.1452 15.6691053,11.3628 C15.7854211,11.4852 15.6143684,12.0904 15.5254211,12.1108 C15.2921053,12.1788 14.9226316,12.1924 14.9157895,12.104 C14.8952632,11.8116 14.8815789,11.4308 14.82,11.15268 C14.7584211,10.8868 14.8678947,10.64948 14.8056316,10.39108 C14.7508947,10.16668 14.7857895,10.06468 14.5114211,10.11908 C14.3403684,10.15308 13.9366842,10.09188 13.8545789,10.04428 C13.6903684,9.94908 13.7724737,9.51456 13.9298421,9.46016 C14.2514211,9.35816 14.1966842,9.49416 14.2856316,9.46016 C14.3951053,9.41868 14.6072105,9.55536 14.6968421,9.49416 C14.7235263,9.47376 14.7105263,9.19496 14.6824737,9.13376 C14.703,9.18816 14.6824737,8.99096 14.6551053,8.91684 C14.6208947,8.82844 14.5661579,8.31164 14.5661579,8.27084 C14.5045789,8.18924 14.573,8.04644 14.5319474,8.05324 C14.5517895,8.04644 14.4566842,7.56364 14.4566842,7.56364 C14.4019474,7.32564 14.4566842,7.23044 14.4087895,7.00604 C14.3478947,6.7524 14.5052632,6.5552 14.4436842,6.3036 C14.3957895,6.0928 14.4163158,5.5148 14.6557895,5.4536 C14.9294737,5.3924 15.2715789,5.5692 15.4221053,5.6644 C15.7847368,5.882 15.5110526,6.3648 15.6,6.7728 C15.6273684,6.8952 15.5863158,7.1536 15.5931579,7.174 C15.7642105,7.616 15.5863158,8.2484 15.6957895,8.636 C15.743,8.7856 15.5384211,9.2956 15.5993158,9.384 C15.7498421,9.59548 15.7361579,9.214 15.7361579,9.18 C15.7361579,9.0576 15.9551053,9.0576 16.0440526,9.112 C16.0912632,9.146 16.1672105,9.146 16.2356316,9.18612 C16.3793158,9.27452 16.4682632,9.54652 16.5633684,9.622 C16.6181053,9.656 16.7412632,9.656 16.7686316,9.69612 C16.8651053,9.86612 16.5633684,9.92732 16.5291579,9.94092 C16.3868421,9.9892 15.7436842,9.9552 15.6342105,10.0436 L15.6342105,10.0436 Z" id="Shape"></path>
                <path d="M14.0057895,11.3152 C13.8826316,11.1452 13.4789474,11.12548 13.4036842,11.24108 C13.2052632,11.5396 12.9794737,11.4308 12.7810526,11.5124 C12.3021053,11.7028 11.8984211,10.9684 11.8163158,10.6012 C11.7205263,10.1456 12.2405263,10.3088 12.4389474,10.4108 C12.4389474,10.404 12.6236842,10.438 12.6031579,10.438 C12.7263158,10.44548 12.9794737,10.37 13.0957895,10.3224 L13.1026316,10.3224 C13.1231579,10.3224 13.3010526,10.2612 13.3078947,10.24828 C13.3352632,10.19388 13.26,9.8736 13.2805263,9.8736 C13.1984211,9.86 13.4242105,8.772 13.4036842,8.67 C13.3078947,8.2756 13.5678947,7.7928 13.4857895,7.5412 C13.4447368,7.4052 12.9931579,7.242 12.9247368,7.2012 C12.7947368,7.1264 12.2815789,7.0516 12.2131579,7.1128 C11.96,7.3712 11.5631579,7.8064 11.3305263,8.228 C11.3168421,8.2484 11.2415789,8.4456 11.2142105,8.4524 C11.0978947,8.5 11.0157895,9.35 10.8994737,9.554 C10.7215789,9.8668 10.8378947,10.8324 10.9542105,10.98268 C11.18,11.2608 11.2689474,11.4784 11.6657895,11.7368 C11.9121053,11.8932 12.3568421,11.9272 12.4526316,11.9 C12.6442105,11.8388 12.6989474,12.0428 12.8563158,12.002 C13,11.96052 13.3010526,11.9272 13.4994737,11.8592 C13.6431579,11.8116 14.2315789,11.628 14.0057895,11.3152 L14.0057895,11.3152 Z M12.0694737,9.3296 C12.1310526,9.22828 12.1857895,8.8468 12.3226316,8.66388 C12.35,8.61628 12.4594737,8.45988 12.4594737,8.45308 C12.4663158,8.45308 12.5415789,9.26228 12.5210526,9.2208 C12.5484211,9.2684 12.5142105,9.71108 12.4594737,9.758 C12.4594737,9.758 12.0557895,9.7512 12.0147368,9.71108 C11.9942105,9.6832 12.0352632,9.384 12.0694737,9.3296 L12.0694737,9.3296 Z" id="Shape"></path>
                <path d="M11.0978947,11.5872 C10.9473684,11.4784 10.4889474,11.2472 10.27,11.3764 C9.82526316,11.65452 9.29842105,11.5532 9.10684211,11.016 C9.01789474,10.7712 9.1,10.5876 9.03842105,10.302 C8.94263158,9.8532 9.53105263,10.26052 9.88684211,10.1864 C10.1057895,10.14492 10.4342105,10.2272 10.5231579,10.03612 C10.53,10.02932 10.53,10.02252 10.5368421,10.02252 C10.5368421,10.02252 10.5368421,10.00824 10.53,10.00824 C10.5368421,10.01572 10.5368421,10.01572 10.5436842,10.01572 C10.5915789,10.01572 10.5847368,9.40372 10.6121053,9.31532 C10.5505263,9.33572 10.6668421,9.18612 10.6326316,9.09092 C10.4889474,8.63532 10.6189474,8.05732 10.4342105,7.64932 C10.3384211,7.43172 9.21631579,7.22772 9.07263158,7.42492 C8.89473684,7.66972 8.81263158,7.66972 8.62789474,7.82612 C8.57315789,7.86692 8.32,8.09132 8.25157895,8.19332 C8.04631579,8.50612 7.8,9.28812 7.93,9.85252 C8.01210526,10.22652 7.82736842,10.64132 7.89578947,10.92692 C7.90947368,10.96772 7.99157895,11.02212 7.99157895,11.06972 C7.99842105,11.08332 8.14210526,11.49132 8.26526316,11.56544 C8.33368421,11.60692 8.38842105,11.56544 8.42263158,11.61304 C8.45684211,11.64704 8.87421053,11.90544 9.01105263,11.98024 C9.39421053,12.19784 10.5094737,11.95984 10.5505263,11.91904 C10.5778947,11.9 11.3031579,11.7368 11.0978947,11.5872 L11.0978947,11.5872 Z M9.36684211,8.4932 C9.46263158,8.4252 9.47631579,8.976 9.50368421,9.0984 C9.51736842,9.1596 9.46947368,9.45268 9.45578947,9.4656 C9.42842105,9.47988 9.09315789,9.4452 9.07263158,9.418 C8.96315789,9.2888 9.31894737,8.5272 9.36684211,8.4932 L9.36684211,8.4932 Z" id="Shape"></path>
                <path d="M7.99842105,11.9136 C7.98473684,11.9136 7.82736842,11.95508 7.82736842,11.95508 C7.66315789,12.01628 7.37578947,12.02308 7.30736842,12.09108 C7.16368421,12.24068 6.95157895,11.9408 6.93789474,11.90068 C6.89,11.73748 6.86947368,11.62188 6.82157895,11.49268 C6.67105263,11.1044 6.56842105,10.744 6.41105263,10.3496 C6.34263158,10.18708 6.34263158,9.8396 6.27421053,9.8056 C6.33578947,9.8396 6.25368421,9.69 6.24684211,9.6832 C6.14421053,9.622 6.19210526,9.2072 6.11684211,9.1256 C6.06210526,9.0644 6.07578947,9.2004 6.06210526,9.2004 C6.13052632,9.41732 5.93210526,9.86612 6.00736842,9.9212 C6.02105263,9.93548 6.00052632,10.5196 6.00736842,10.5196 C6.04842105,10.66988 5.95947368,11.3968 5.87052632,11.55388 C5.74736842,11.76468 4.77578947,11.8524 4.57736842,11.60828 C4.42,11.41788 4.18736842,11.02348 4.07105263,10.83988 C4.02315789,10.7712 4.02315789,10.66988 3.98210526,10.61548 C3.77,10.3496 3.83842105,10.66988 3.84526316,10.84668 C3.85894737,11.19348 4.04368421,11.58108 3.67421053,11.71028 C3.35947368,11.82588 2.84631579,11.92176 2.73,11.63616 C2.6,11.30976 2.65473684,10.56856 2.58631579,10.42576 C2.49736842,10.26256 2.52473684,9.43976 2.52473684,9.35816 C2.53157895,9.25684 2.55210526,8.88964 2.54526316,8.85496 C2.51105263,8.636 2.57263158,8.398 2.55210526,8.3164 C2.44263158,7.8812 2.99,7.8268 3.17473684,7.786 C3.20210526,7.7792 3.72894737,7.7996 3.77684211,7.8608 C3.85210526,7.9492 3.81105263,7.9628 3.92052632,8.092 C4.12578947,8.3232 4.26263158,8.8332 4.41315789,9.0236 C4.53631579,9.17388 4.69368421,9.4996 4.76894737,9.6696 C4.89894737,9.9552 4.81684211,9.0916 4.93315789,8.8672 C5.06315789,8.6224 5.02894737,8.2824 5.14526316,8.0852 C5.29578947,7.8336 5.38473684,7.3168 5.56263158,7.0448 C5.65842105,6.8884 6.19210526,7.004 6.29473684,7.0244 C6.59578947,7.0856 6.56157895,6.9836 6.76684211,7.1944 C6.91052632,7.344 7.13631579,8.33 7.24578947,8.7244 C7.29368421,8.8876 7.30736842,9.4792 7.43736842,9.826 C7.50578947,10.0028 7.73842105,10.6964 7.77947368,11.1248 L7.77947368,11.1316 C7.84105263,11.2064 8.06684211,11.8524 7.99842105,11.9136 L7.99842105,11.9136 Z" id="Shape"></path>
            </g>
        </g>
    </g>
</svg>
